!!!COM:	Ockeghem, Johannes
!!!CDT:	~1425-1497/02/06
!!!OPR:	Missa De plus en plus
!!!ONM:	2
!!!OTL:	Gloria
!!!AGN:	Mass; Gloria
!!!SCT:	Ock1005b
!!!voices:	4
!!!voices-OPR:	4
**kern	**kern	**kern	**kern
*staff4	*staff3	*staff2	*staff1
*Ivox	*Ivox	*Ivox	*Ivox
*I"Bassus	*I"Tenor	*I"Altus	*I"Superius
*I'B	*I'T	*I'A	*I'S
*clefF4	*clefGv2	*clefGv2	*clefG2
*>[A,B,C]	*>[A,B,C]	*>[A,B,C]	*>[A,B,C]
*>A	*>A	*>A	*>A
*k[]	*k[]	*k[]	*k[]
*M3/1	*M3/1	*M3/1	*M3/1
*met(O)	*met(C.)	*met(O)	*met(O)
!!primary-mensuration: met(O)
*	*rscale:1/2	*	*
=1-	=1-	=1-	=1-
!!section: Et in terra pax
!!!OMD: Et in terra pax
0.r	0.r	[0.c	0c
.	.	.	2e/
.	.	.	2f/
=2	=2-	=2	=2
0.r	0.r	0.c_	1a
.	.	.	2g/
.	.	.	1g
.	.	.	2e/
=3	=3	=3	=3
0.r	0.r	0c]	2c/
.	.	.	2.g/
.	.	.	4e/
.	.	.	2f/
.	.	1B	1d
=4	=4-	=4	=4
0.r	0.r	1c	1c
.	.	0A	1r
.	.	.	2.c/
.	.	.	4B/
=5	=5	=5	=5
0.r	0.r	0G	2e/
.	.	.	1d
.	.	.	2B/
.	.	1F	2A/
.	.	.	[2d/
=6	=6-	=6	=6
0.r	0.r	1G	2d/]
.	.	.	2e/
.	.	1B	2d/
.	.	.	2g/
.	.	1c	2a/
.	.	.	2cc\
=7	=7	=7	=7
!!linebreak:original
0.r	0.r	1d	2b\
.	.	.	1a
.	.	2c\	.
.	.	2B\	1g
.	.	1A	.
.	.	.	2f/
=8	=8-	=8	=8
0.r	0.r	2G/	2e/
.	.	1c	1a
.	.	2B\	2.g/
.	.	2c\	.
.	.	.	4e/
.	.	2d\	2f/
=9	=9	=9	=9
0.r	0.r	0.e;	1.g
.	.	.	2c/
.	.	.	1c;
=10	=10-	=10	=10
0.r	0.r	[0.e	1.g
.	.	.	2a/
.	.	.	1b
=11	=11	=11	=11
0.r	0.r	1e]	1.cc
.	.	0d	.
.	.	.	2b\
.	.	.	2b\
.	.	.	2a/
=12	=12-	=12	=12
0.r	0.r	1c	1cc
.	.	1G	2b\
.	.	.	2.g/
.	.	1c	.
.	.	.	4a/
.	.	.	2cc\
=13	=13	=13	=13
!!linebreak:original
0.r	0.r	1d	2b\
.	.	.	2dd\
.	.	2A/	2cc\
.	.	2c\	1a
.	.	1B	.
.	.	.	2g#i/
=14	=14-	=14	=14
0.r	0.r	2.A/	1.a
.	.	4B\	.
.	.	2c\	.
.	.	2d\	4g/
.	.	.	4f/
.	.	2e\	1e
.	.	2c\	.
=15	=15	=15	=15
0.r	0.r	2d\	1d
.	.	1B	.
.	.	.	1g
.	.	1c	.
.	.	.	2a/
.	.	2A/	2cc\
=16	=16-	=16	=16
0.r	0.r	1G	2b\
.	.	.	1dd
.	.	2B\	.
.	.	2A/	2.cc\
.	.	[1c	.
.	.	.	4b\
.	.	.	4a/
.	.	.	4g/
=17	=17	=17	=17
0.r	0.r	1c]	2a/
.	.	.	1g
.	.	2.c\	.
.	.	.	2e/
.	.	4d\	.
.	.	1B	2f/
.	.	.	2g/
=18	=18-	=18	=18
0.r	0.r	0c	2e/
.	.	.	1a
.	.	.	1g
.	.	1e	.
.	.	.	[2cc\
=19	=19	=19	=19
0.r	0.r	1g	4cc\]
.	.	.	4b\
.	.	.	1dd
.	.	1c	.
.	.	.	1cc
.	.	1d	.
.	.	.	2b\
=20	=20-	=20	=20
!!pagebreak:original
0.r	0.r	0c	0cc
.	.	1e	1r
=21	=21	=21	=21
1r	0.G	1e	0b
1r	.	1d	.
1G	.	1g	1b
=22	=22-	=22	=22
1.G	0.B	2e\	2.g/
.	.	1d	.
.	.	.	4a/
.	.	.	2b\
2F\	.	2e\	2cc\
1D	.	1f	2.dd\
.	.	.	4cc\
=23	=23	=23	=23
[0.C	0.c	2a\	1.ee
.	.	1g	.
.	.	1e	1cc
.	.	2c\	4b\
.	.	.	4a/
=24	=24-	=24	=24
0.C]	0.e	1c	1g
.	.	1r	2a/
.	.	.	2g/
.	.	1g	1cc
=25	=25	=25	=25
1r	[0.d	1f	1b
1r	.	1f	1a
1G	.	[1g	1b
=26	=26-	=26	=26
1G	0.d]	2g\]	1g
.	.	1d	.
0F	.	.	0a
.	.	4c\	.
.	.	4B\	.
.	.	1A	.
=27	=27	=27	=27
!!linebreak:original
2G\	[0.G	2r	1g
2.E\	.	2B\	.
.	.	1c	2r
4C/	.	.	.
2C/	.	.	2cc\
2GG/	.	2d\	2b\
2C/	.	2e\	2cc\
=28	=28-	=28	=28
2BB/	0.G]	2d\	2dd\
1C	.	2.g\	2.ee\
.	.	4f\	4dd\
2D\	.	4e\	2b\
.	.	4d\	.
1E	.	2.c\	4cc\
.	.	.	4b\
.	.	.	4a/
.	.	4B\	4g/
=29	=29	=29	=29
0D	1.A	0.d	0f
.	1B-	.	.
1r	.	.	1g
.	4A/	.	.
.	4G/	.	.
=30	=30-	=30	=30
0.r	2F/	2r	2a/
.	2c\	2e\	4g/
.	.	.	4a/
.	2d\	2f\	2b-i\
.	2G/	1d	1g
.	1A	.	.
.	.	2c\	2f#i/
=31	=31	=31	=31
1r	0.G	0d	0g
1r	.	.	.
1G	.	1e	2r
.	.	.	[2g/
=32	=32-	=32	=32
2.G\	0.r	2d\	2g/]
.	.	1g	2e/
4A\	.	.	.
2B\	.	.	2d/
2c\	.	4f\	2c/
.	.	4e\	.
2d\	.	1d	2.f/
2B\	.	.	.
.	.	.	4g/
=33	=33	=33	=33
1.c	[0.c	1g	1e
.	.	1e	1c
1A	.	.	.
.	.	1c	2r
2F\	.	.	[2cc\
=34	=34-	=34	=34
!!linebreak:original
1F	0.c_	1f	2cc\]
.	.	.	2a/
2r	.	2g\	1g
2.c\	.	2.e\	.
.	.	.	1e
4A\	.	4c\	.
2A\	.	2c\	.
=35	=35	=35	=35
2F\	0.c]	2A/	2f/
1c	.	1e	1a
2B\	.	2d\	2.g/
1A	.	1c	.
.	.	.	4e/
.	.	.	2f#i/
=36	=36-	=36	=36
1.G	[0.B	1d	0g
.	.	1e	.
2E\	.	.	.
4F\	.	[1d	1r
4E\	.	.	.
4D\	.	.	.
4C/	.	.	.
=37	=37	=37	=37
2BB/	0.B]	2d\]	0.r
2.E\	.	1g	.
4F\	.	.	.
2C/	.	2e\	.
1D	.	1f	.
=38	=38-	=38	=38
1C	0c	1e	1g
1r	.	2c\	2a/
.	.	1e	2g/
1r	1A	.	2.cc\
.	.	2f\	.
.	.	.	4dd\
=39	=39	=39	=39
0.r	1G	2.g\	2b\
.	.	.	1dd
.	.	4f\	.
.	2r	4e\	.
.	.	4d\	.
.	1G	2.d\	2b\
.	.	.	1a
.	.	4c\	.
.	2F/	2A/	.
=40	=40-	=40	=40
0.r	2G/	2B\	1g
.	2B-\	2d\	.
.	2A/	2c\	2f/
.	1G	4d\	2.g/
.	.	2B\	.
.	.	4G/	4e/
.	2F/	2A/	2d/
=41	=41	=41	=41
!!linebreak:original
0.r	2A/	2F/	2.f/
.	2G/	2B-i\	.
.	.	.	4e/
.	2E/	2G/	2c/
.	2F/	2A/	1c
.	1D	1F	.
.	.	.	2B/
=42	=42-	=42	=42
1r	0.C	0G	1c
1r	.	.	1r
1c	.	1A	2.e/
.	.	.	4f/
=43	=43	=43	=43
2e\	1r	1G	2g/
1d	.	.	4f/
.	.	.	4g/
.	1r	1d	2a/
2B\	.	.	1g
1A	1c	1r	.
.	.	.	2f#i/
=44	=44-	=44	=44
2r	0B	0d	1g
1G	.	.	.
.	.	.	2b\
2F\	.	.	2.a/
1E	1c	1e	.
.	.	.	4g/
.	.	.	2g/
=45	=45	=45	=45
2D\	0d	2f\	2r
2G\	.	2g\	2b\
2A\	.	2f\	2a/
1.B	.	[1.d	2g/
.	[1G	.	1dd
=46	=46-	=46	=46
2G\	1G]	2d\]	2b\
1d	.	2B\	2g/
.	0F	1A	2a/
4c\	.	.	1cc
4B\	.	.	.
1A	.	1c	.
.	.	.	2a/
=47	=47	=47	=47
2.G\	2r	0d	1b
.	1G	.	.
4F\	.	.	.
4E\	.	.	2g/
4D\	.	.	.
1D	2F/	.	2.a/
.	1E	2B\	.
.	.	.	4d/
2C/	.	2c\	2e/
=48	=48-	=48	=48
!!pagebreak:original
2D\	[0.D\	2r	2f/
2.F\	.	1d	2.a/
4G\	.	.	4b-i\
2B-i\	.	1f	2.dd\
2A\	.	.	.
.	.	.	4cc\
[2d\	.	[2f\	4b-i\
.	.	.	4a/
=49	=49	=49	=49
4d\]	0.D]	4f\]	2a/
4c\	.	2e\	.
2B-i\	.	.	1dd
.	.	4d\	.
2A\	.	2f\	.
2G\	.	2g\	2.dd\
1A	.	2r	.
.	.	.	4cc\
.	.	2f#i\	2a/
=50	=50-	=50	=50
0.G	0.dl	0g	1b
.	.	.	1r
.	.	1r	1b
=51	=51	=51	=51
0.r	0.r	1.g	1.b
.	.	4f\	2cc\
.	.	4e\	.
.	.	2f\	1dd
.	.	2g\	.
=52	=52-	=52	=52
0.r	0.r	1.c	[0.ee
.	.	2.g\	.
.	.	4f\	.
.	.	[2a\	.
=53	=53	=53	=53
0.r	0.r	4a\]	1ee]
.	.	4g\	.
.	.	2e\	.
.	.	2g\	0dd
.	.	2a\	.
.	.	1f	.
=54	=54-	=54	=54
0.r	0.r	1e	1ee
.	.	1r	2dd\
.	.	.	2.b\
.	.	[1g	.
.	.	.	4g/
.	.	.	[2dd\
=55	=55	=55	=55
!!linebreak:original
0.r	0.r	1g]	1.dd]
.	.	0f	.
.	.	.	2b\
.	.	.	2a/
.	.	.	2cc\
=56	=56-	=56	=56
0.r	0.r	1g	2b\
.	.	.	2g/
.	.	2r	2.a/
.	.	[1.c	.
.	.	.	4g/
.	.	.	2.e/
.	.	.	4d/
=57	=57	=57	=57
0.r	0.r	2c\]	2e/
.	.	2B\	1g
.	.	2G/	.
.	.	2.c\	2e/
.	.	.	1d
.	.	4d\	.
.	.	2f\	.
=58	=58-	=58	=58
0.r	0.r	2a\	1c
.	.	1g	.
.	.	.	2r
.	.	2e\	2g/
.	.	2f\	2cc\
.	.	2d\	2dd\
=59	=59	=59	=59
0.r	0.r	2c\	2.ee\
.	.	1g	.
.	.	.	4dd\
.	.	.	2b\
.	.	2e\	2cc\
.	.	2f\	2dd\
.	.	2g\	2b\
=60	=60-	=60	=60
0.r	0.r	2a\	2a/
.	.	2f\	2.dd\
.	.	1g	.
.	.	.	4cc\
.	.	.	1ee
.	.	1c	.
.	.	.	[2cc\
=61	=61	=61	=61
0.r	0.r	1d	2cc\]
.	.	.	2b\
.	.	0c	2.cc\
.	.	.	4b\
.	.	.	2a/
.	.	.	[2g/
=62	=62-	=62	=62
!!linebreak:original
0.r	0.r	2.c\	2g/]
.	.	.	1a
.	.	4d\	.
.	.	2f\	.
.	.	1e	2g/
.	.	.	1f
.	.	2d\	.
=63	=63	=63	=63
0.r	0.r	2.c\	1e
.	.	4B\	.
.	.	0Gl	1r
.	.	.	[1g
=64	=64-	=64	=64
2.E\	0.r	0.r	2g/]
.	.	.	2a/
4F\	.	.	.
2.G\	.	.	2b\
.	.	.	2cc\
4A\	.	.	.
2B\	.	.	1dd
2G\	.	.	.
=65	=65	=65	=65
2r	0.r	0.r	1dd
2.d\	.	.	.
.	.	.	1r
4B\	.	.	.
2B\	.	.	.
2G\	.	.	1dd
[2d\	.	.	.
=66	=66-	=66	=66
4d\]	0.r	0.r	1b
4c\	.	.	.
2d\	.	.	.
1e	.	.	1cc
[1d	.	.	[1dd
=67	=67	=67	=67
2d\]	0.r	0.r	1dd]
1B	.	.	.
.	.	.	1b
2G\	.	.	.
2G\	.	.	2b\
4F\	.	.	[2g/
4E\	.	.	.
=68	=68-	=68	=68
2D\	0.r	0.r	4g/]
.	.	.	4f/
1G	.	.	2e/
.	.	.	2d/
2F\	.	.	2r
2E\	.	.	2.g/
[2C/	.	.	.
.	.	.	4a/
=69	=69	=69	=69
!!linebreak:original
2C/]	0.r	0.r	4g/
.	.	.	8f/L
.	.	.	8e/J
2BB/	.	.	2d/
2C/	.	.	2.e/
2E\	.	.	.
.	.	.	8d/L
.	.	.	8c/J
2D\	.	.	2.B/
[2G\	.	.	.
.	.	.	4c/
=70	=70-	=70	=70
2G\]	0.r	0.r	2d/
2.G\	.	.	2e/
.	.	.	2d/
4F\	.	.	.
4E\	.	.	2g/
4D\	.	.	.
2.d\	.	.	2a/
.	.	.	2b\
8c\L	.	.	.
8d\J	.	.	.
=71	=71	=71	=71
2e\	0.r	0.r	2.cc\
2d\	.	.	.
.	.	.	4b\
2B\	.	.	4a/
.	.	.	4g/
2c\	.	.	1g
1A	.	.	.
.	.	.	2f#i/
=72	=72-	=72	=72
0.Gl	0.r	0.r	0.gl
!!LO:LB:i:g=z
*	*rscale:1	*	*
=73||	=73||	=73||	=73||
*>B	*>B	*>B	*>B
!!section: Qui tollis
!!!OMD: Qui tollis
*M2/1	*M2/1	*M2/1	*M2/1
*met(C|)	*met(C)	*met(C|)	*met(C|)
!!primary-mensuration: met(C|)
*	*rscale:1/2	*	*
[0C	[0c	[0e	0g
=74	=74-	=74	=74
0C]	0c_	0e]	1a
.	.	.	[1cc
=75	=75	=75	=75
1.C	0c_	[0e	2cc\]
.	.	.	2b\
.	.	.	1a
2D\	.	.	.
=76	=76-	=76	=76
!!pagebreak:original
1.E	0c]	0e]	1g
.	.	.	1a
2F\	.	.	.
=77	=77	=77	=77
1.G	[0G	0d	1.b
2A\	.	.	2cc\
=78	=78-	=78	=78
2B\	0G]	0g	1.dd
2c\	.	.	.
[1d	.	.	.
.	.	.	4cc\
.	.	.	4b\
=79	=79	=79	=79
1d]	1r	1f	1a
1G	1G	[1g	[1b
=80	=80-	=80	=80
1r	[0G	1g]	1b]
1G	.	[1e	[1g
=81	=81	=81	=81
0B	0G]	2e\]	1g]
.	.	2d\	.
.	.	[1d	1g
=82	=82-	=82	=82
0A	[0D	2d\]	1a
.	.	2c\	.
.	.	1A	[1f
=83	=83	=83	=83
!!linebreak:original
1F	1D]	1B	2f/]
.	.	.	2d/
1G	1C	[1c	1e
=84	=84-	=84	=84
1A	0F	1c]	1f
1D	.	[1d	1a
=85	=85	=85	=85
1r	0E	2d\]	1g
.	.	2B\	.
[1G	.	1c	1e
=86	=86-	=86	=86
2G\]	0D	2d\	0r
2E\	.	2c\	.
1F	.	1A	.
=87	=87	=87	=87
2G\	1r	1B	0r
1GG	.	.	.
!	!LO:N:vis=0	!	!
.	[y1D	2G/	.
2FF/	.	2c\	.
=88	=88-	=88	=88
2GG/	1D]yy	2B\	0r
2BB-i/	.	1G	.
1AA	1C	.	.
.	.	2F#i/	.
=89	=89	=89	=89
[0GG	1D	2G/	0r
.	.	1B	.
.	1E	.	.
.	.	2c\	.
=90	=90-	=90	=90
!!linebreak:original
0GG]	1D	1d	0r
.	[1G	2B\	.
.	.	[2e\	.
=91	=91	=91	=91
0r	0G_	4e\]	0r
.	.	4d\	.
.	.	2B\	.
.	.	2c\	.
.	.	2d\	.
=92	=92-	=92	=92
0r	1G]	1G	0r
.	1F#i	1A	.
=93	=93	=93	=93
!	!LO:N:vis=00	!	!
1r	[y0G	0G	1d
[1C	.	.	[1g
=94	=94-	=94	=94
1C]	0G]yy	1r	2g/]
.	.	.	2f/
1BB	.	1B	1d
=95	=95	=95	=95
1C	0r	1A	1e
1E	.	1G	1g
=96	=96-	=96	=96
0D	0d	1.A	1.f
.	.	2B\	2d/
=97	=97	=97	=97
!!linebreak:original
!	!LO:N:vis=00	!	!
1.A	[y0e	0c	0c
2G\	.	.	.
=98	=98-	=98	=98
1A	0e]yy	1r	0cc
1c	.	[1g	.
=99	=99	=99	=99
1B	[0d	0g]	0dd
1G	.	.	.
=100	=100-	=100	=100
0r	1d]	1f	1b
.	1B	1d	[1g
=101	=101	=101	=101
0r	0c	0e	1g]
.	.	.	[1a
=102	=102-	=102	=102
0r	0A	0c	2a/]
.	.	.	2e/
.	.	.	1f#i
=103	=103	=103	=103
0r	0G	[0d	0g
=104	=104-	=104	=104
!!pagebreak:original
1D	0r	1d]	1r
[1G	.	[1B	1d
=105	=105	=105	=105
2G\]	0r	1B]	1.g
2A\	.	.	.
1B	.	1G	.
.	.	.	2a/
=106	=106-	=106	=106
1G	0r	0r	1b
1r	.	.	1g
=107	=107	=107	=107
1D	0r	0r	1r
[1G	.	.	1d
=108	=108-	=108	=108
2G\]	0r	0r	0g
2A\	.	.	.
1B	.	.	.
=109	=109	=109	=109
1c	0r	0r	1a
1r	.	.	1b
=110	=110-	=110	=110
1.G	0r	0r	1r
.	.	.	1d
2A\	.	.	.
=111	=111	=111	=111
!!linebreak:original
0B	0r	0r	0g
=112	=112-	=112	=112
1c	0r	0r	1a
1d	.	.	1b
=113	=113	=113	=113
1D	0r	0r	1r
[1G	.	.	1d
=114	=114-	=114	=114
2G\]	0r	0r	1.g
2A\	.	.	.
1B	.	.	.
.	.	.	2a/
=115	=115	=115	=115
1.G	0r	0r	1b
.	.	.	[1dd
2A\	.	.	.
=116	=116-	=116	=116
1B	0r	0r	2dd\]
.	.	.	2cc\
1c	.	.	[1cc
=117	=117	=117	=117
0d	0r	0r	2cc\]
.	.	.	2a/
.	.	.	1b
=118	=118-	=118	=118
!!linebreak:original
[0c	0r	[0g	[0cc
=119	=119	=119	=119
0c]	0r	0g_	1cc]
.	.	.	[1ee
=120	=120-	=120	=120
[0G	0r	0g]	2ee\]
.	.	.	2dd\
.	.	.	[1dd
=121	=121	=121	=121
0G]	0r	0d	2dd\]
.	.	.	2b\
.	.	.	1b
=122	=122-	=122	=122
1r	0r	[0e	1g
[1c	.	.	2a/
.	.	.	[2cc\
=123	=123	=123	=123
0c_	0r	0e]	2cc\]
.	.	.	2b\
.	.	.	2a/
.	.	.	2g/
=124	=124-	=124	=124
1c]	0r	1r	1a
1G	.	[1d	[1g
=125	=125	=125	=125
!!linebreak:original
0A	0r	1d]	1g]
.	.	1c	1f
=126	=126-	=126	=126
1G	1r	0d	1.b-i
1r	[1D	.	.
.	.	.	4a/
.	.	.	4g/
=127	=127	=127	=127
0r	1D]	1.f	1.a
.	1D	.	.
.	.	4e\	4g/
.	.	4d\	4f/
=128	=128-	=128	=128
0r	1E	0c	1g
.	1A	.	2f/
.	.	.	[2e/
=129	=129	=129	=129
0r	1G	1B	2e/]
.	.	.	2d/
.	1F	1A	[1d
=130	=130-	=130	=130
0r	0E	0G	2d/]
.	.	.	2c#i/
.	.	.	2c#i/
.	.	.	2B/
=131	=131	=131	=131
1r	0Dl	1A	[0d
[1B-	.	1d	.
=132	=132-	=132	=132
!!pagebreak:original
2B-\]	0r	1r	0d_
2A\	.	.	.
1G	.	1g	.
=133	=133	=133	=133
1F	0r	1.a	0d]
1G	.	.	.
.	.	2g\	.
=134	=134-	=134	=134
0A	0r	1e	1r
.	.	1f	1a
=135	=135	=135	=135
0G	0r	0g	1.b
.	.	.	4a/
.	.	.	4b\
=136	=136-	=136	=136
0r	0r	1.a	1cc
.	.	.	[1dd
.	.	4g\	.
.	.	4f\	.
=137	=137	=137	=137
1r	0r	2e\	1dd]
.	.	2d\	.
1A	.	1e	1cc
=138	=138-	=138	=138
1B	0r	0d	1dd
[1G	.	.	[1b
=139	=139	=139	=139
!!linebreak:original
1G]	0r	1r	2b\]
.	.	.	2a/
1F	.	[1d	1a
=140	=140-	=140	=140
0E	0r	1d]	1r
.	.	1c	1g
=141	=141	=141	=141
[0D	0r	1d	0f
.	.	[1B	.
=142	=142-	=142	=142
1D]	0r	2B\]	1d
.	.	2A/	.
1C	.	[1A	1e
=143	=143	=143	=143
0D	0r	1A]	1f
.	.	1F	[1d
=144	=144-	=144	=144
0E	0r	0G	1d]
.	.	.	1c#i
=145	=145	=145	=145
0D	0r	0A	2d/
.	.	.	2f/
.	.	.	2g/
.	.	.	[2a/
=146	=146-	=146	=146
!!linebreak:original
0r	0r	0B-i	2a/]
.	.	.	2g/
.	.	.	2g/
.	.	.	2f/
=147	=147	=147	=147
0F	0r	1A	0a
.	.	1c	.
=148	=148-	=148	=148
0G	0r	1B-i	1r
.	.	1G	[1dd
=149	=149	=149	=149
0F	0r	1r	1dd]
.	.	1A	1cc
=150	=150-	=150	=150
0G	0r	1G	1b
.	.	[1B	[1g
=151	=151	=151	=151
1r	0r	1B]	1g]
[1G	.	1G	1g
=152	=152-	=152	=152
1G]	0r	1r	[0dd
1F	.	1A	.
=153	=153	=153	=153
!!linebreak:original
1G	0r	2B\	0dd]
.	.	1G	.
1B-i	.	.	.
.	.	[2g\	.
=154	=154-	=154	=154
1A	0r	2g\]	1cc
.	.	2f\	.
[1G	.	[1g	1b
=155	=155	=155	=155
0G]	0r	2g\]	0dd
.	.	2f\	.
.	.	[1d	.
=156	=156-	=156	=156
1B	0r	1d]	1g
1c	.	2e\	1r
.	.	2g\	.
=157	=157	=157	=157
0d	0r	1.f	1a
.	.	.	1b
.	.	2d\	.
=158	=158-	=158	=158
1B	0r	1d	1dd
1c	.	2r	[1ee
.	.	[2g\	.
=159	=159	=159	=159
1d	0r	2g\]	2ee\]
.	.	2f\	2dd\
[1e	.	1g	1b
=160	=160-	=160	=160
!!pagebreak:original
1e]	0r	1c	1cc
1d	.	1r	[1dd
=161	=161	=161	=161
1B	0r	2f\	2dd\]
.	.	2d\	2cc\
1c	.	1e	1a
=162	=162-	=162	=162
1.d	0r	1.f	1b
.	.	.	[1a
2c\	.	2e\	.
=163	=163	=163	=163
1A	0r	1f	2a/]
.	.	.	2d/
1B	.	1g	1d
=164	=164-	=164	=164
1.A	0r	1a	1r
.	.	[1f	[1a
2D\	.	.	.
=165	=165	=165	=165
1D	0r	2f\]	2a/]
.	.	2d\	4g/
.	.	.	4a/
2r	.	1d	2b\
[2d\	.	.	2cc\
=166	=166-	=166	=166
2d\]	0r	1r	1.dd
2B\	.	.	.
2B\	.	1g	.
2G\	.	.	4cc\
.	.	.	4b\
=167	=167	=167	=167
!!linebreak:original
2c\	0r	2e\	1a
2d\	.	2f\	.
1e	.	1c	2.g/
.	.	.	4a/
=168	=168-	=168	=168
2d\	0r	1G	1b
2B\	.	.	.
2c\	.	1r	1a
[2d\	.	.	.
=169	=169	=169	=169
2d\]	0r	[0d	2f/
2.G\	.	.	2g/
.	.	.	2d/
4F\	.	.	.
2G\	.	.	2g/
=170	=170-	=170	=170
2D\	0r	0d]	2a/
1d	.	.	1b
2G\	.	.	[2g/
=171	=171	=171	=171
1A	0r	1c	2g/]
.	.	.	2f#i/
1G	.	1d	1g
=172	=172-	=172	=172
0Gl	0r	0dl	0gl
*	*rscale:1	*	*
!!LO:LB:i:g=z
=173||	=173||	=173||	=173||
*>C	*>C	*>C	*>C
!!section: Cum Sancto
!!!OMD: Cum Sancto
*M3/1	*M3/1	*M3/1	*M3/1
*met(O)	*met(C.)	*met(O)	*met(O)
!!primary-mensuration: met(O)
*	*rscale:1/2	*	*
0.r	0.r	[0.g	1.g
.	.	.	2a/
.	.	.	1b
=174	=174-	=174	=174
!!linebreak:original
0.r	0.r	1g]	1b
.	.	0a	0cc
=175	=175	=175	=175
0.r	0.r	0.g	1dd
.	.	.	1.ee
.	.	.	2cc\
=176	=176-	=176	=176
0.r	0.r	1c	1.cc
.	.	1.d	.
.	.	.	4b\
.	.	.	4a/
.	.	.	1b
.	.	4c\	.
.	.	4B\	.
=177	=177	=177	=177
[0.c	0.r	0A	0cc
.	.	2.e\	1a
.	.	4d\	.
=178	=178-	=178	=178
1c]	0.r	2e\	1a
.	.	2.a\	.
0A	.	.	1cc
.	.	4g\	.
.	.	1g	.
.	.	.	[1ee
.	.	2f#i\	.
=179	=179	=179	=179
1r	0.G	1.g	1ee]
1r	.	.	0dd
.	.	2f\	.
1G	.	1d	.
=180	=180-	=180	=180
1G	0.B	2r	1.dd
.	.	1.g	.
2.E\	.	.	.
.	.	.	2cc\
4F\	.	.	.
1G	.	2d\	2.b\
.	.	2e\	.
.	.	.	4a/
=181	=181	=181	=181
!!linebreak:original
1.F	0.c	2.f\	1.a
.	.	4e\	.
.	.	2c\	.
2G\	.	1e	1g
1A	.	.	.
.	.	2f\	2cc\
=182	=182-	=182	=182
1G	0.e	1g	1b
2r	.	1c	1.a
2c\	.	.	.
2A\	.	1r	.
2c\	.	.	4g/
.	.	.	4a/
=183	=183	=183	=183
!	!LO:N:vis=00.	!	!
2B\	[y0.d	1.g	2b\
1G	.	.	2cc\
.	.	.	1.dd
2F\	.	2a\	.
1G	.	1g	.
.	.	.	2cc\
=184	=184-	=184	=184
2r	0.d]yy	1f	1a
1D	.	.	.
.	.	1d	2f/
2BB/	.	.	2d/
2.BB/	.	2r	2g/
.	.	2d\	4f/
4AA/	.	.	[4a/
=185	=185	=185	=185
2D\	0.r	2B\	4a/]
.	.	.	4f/
2C/	.	2c\	2e/
1D	.	2A/	2f/
.	.	2F/	1d
1E	.	1G	.
.	.	.	2c#i/
=186	=186-	=186	=186
1D	0.r	1A	1d
1A	.	1F	2r
.	.	.	2.a/
1c	.	2r	.
.	.	.	8g/L
.	.	.	8f/J
.	.	2c\	4e/
.	.	.	4d/
=187	=187	=187	=187
2B\	0.r	1d	2.g/
1G	.	.	.
.	.	.	4a/
.	.	1e	2b\
2A\	.	.	2cc\
2B\	.	2d\	2dd\
2c\	.	[2g\	[2ee\
=188	=188-	=188	=188
!!pagebreak:original
1d	0r	2g\]	4ee\]
.	.	.	4dd\
.	.	2f\	1dd
1A	.	1e	.
.	.	.	2cc\
[1B	2r	1d	2.dd\
.	[2G/	.	.
.	.	.	4b\
=189	=189	=189	=189
2B\]	2G/]	2e\	2g/
2A\	2F/	2f\	2a/
2r	2E/	2g\	1.b
2F\	2D/	1f	.
1D	2d\	.	.
.	4c\	2e\	4a/
.	4d\	.	4b\
=190	=190-	=190	=190
2C/	2e\	2.g\	2cc\
2.G\	2d\	.	1b
.	.	4f\	.
.	2G/	1d	.
4F\	.	.	.
2G\	2B\	.	1g
1D	1A	2r	.
.	.	2d\	2f#i/
=191	=191	=191	=191
[0.GGl	[0.Gl	0d	[0.gl
.	.	2.B\	.
.	.	4c\	.
=192	=192-	=192	=192
0.GG]	0.G]	0.dl	0.g]
*	*rscale:1	*	*
==	==	==	==
*-	*-	*-	*-
!!!RDF**kern: l=long note in original notation
!!!RDF**kern: i=editorial accidental
!!!ENC:	Will Watson 11/1/2012
!!!END:	2012/01/11/
!!!EED:	Jesse Rodin
!!!EEV:	2012/03/13/
!!!ONB:	Translated from MusicXML and edited on 2012/03/13/ by Craig Sapp
!!muse2ps: T^@{OPR}^u^@{ONM}{. }@{OTL}^C^@{COM}^i2I100v85,90,85,150Q16
